X: 1
T: Ladies Triumph  [G]
T: Farewell to Whiskey
O: Neil Gow 1809
R: reel
Z: 2011 John Chambers <jc:trillian.mit.edu>
S: printed MS of unknown origin
B: Gow's "Strathspey Reels", Vol.5, 1809, as "Farewell to Whiskey" (in G)
B: Raven "English Country Dance Tunes", 1984; p.149  (in A)
B: Ryan's "Mammoth Collection" (in F)
M: 2/4
L: 1/16
K: G
"A"[|] D2 \
| "G"D2G2 GABG | "Am"A2E2- "D7"E2F2 | "G"G2G2 GABc | "(D)"d4 "G"B2d2 \
| "C"e2g2 "G"d2B2 | "Am"cBAG "D"A2d2 | "G"D2G2 "D7"BAGA | "G"B2G2 G2 :|
"B"|: Bc \
| "G"d2B2 g2d2 | "Am"cBAG "D7"A2Bc | "G"d2B2 g2d2 | "C"eg"D"fa "G"g3d \
| "C"e2g2 "G"d2B2 | "Am"cBAG "D7"A2d2 | "G"D2G2 "D7"BAGA | "G"B2G2 G2 :|
